X: 27000
T: Miss Fiona Mitchell's
R: strathspey
M: 4/4
K: Fmajor
A|C>F (3GFE F2 C>F|A>F c>A f>c A<F|D>G (3AG^F G2 D>G|B>G d>B (3edc (3BAG|
C>F (3GFE F>A, C>F|A>F c>A f>c A<F|B>A B>c d>B g>f|(3edc (3BAG F3:|
|:z|c>f f>e f2 c>f|A>c f>c a>f c<A|B>g g>^f g2 d>g|B>d g>d (3edc (3BAG|
c>f f>e f2 c>f|A>c f>c a>f c<A|B>A B>c d>B g>f|(3edc (3BAG F3:|

